dist/assets/images/logo/payment/mastercard.svg

<svg width="34" height="27" viewBox="0 0 34 27" fill="none" xmlns="http://www.w3.org/2000/svg">
<g clip-path="url(#clip0_611_26596)">
<path d="M6.59468 25.2104V23.6045C6.59468 22.9889 6.21286 22.5874 5.5583 22.5874C5.23102 22.5874 4.87647 22.6945 4.63101 23.0424C4.4401 22.748 4.16736 22.5874 3.75826 22.5874C3.48553 22.5874 3.2128 22.6677 2.99462 22.9621V22.641H2.42188V25.2104H2.99462V23.7918C2.99462 23.3368 3.24007 23.1227 3.6219 23.1227C4.00372 23.1227 4.19464 23.3636 4.19464 23.7918V25.2104H4.76738V23.7918C4.76738 23.3368 5.04011 23.1227 5.39466 23.1227C5.77649 23.1227 5.9674 23.3636 5.9674 23.7918V25.2104H6.59468ZM15.0767 22.641H14.1494V21.8648H13.5766V22.641H13.0585V23.1495H13.5766V24.3271C13.5766 24.916 13.8221 25.2639 14.4767 25.2639C14.7221 25.2639 14.9949 25.1836 15.1858 25.0765L15.0221 24.5948C14.8585 24.7018 14.6676 24.7286 14.5312 24.7286C14.2585 24.7286 14.1494 24.568 14.1494 24.3004V23.1495H15.0767V22.641ZM19.9313 22.5874C19.604 22.5874 19.3859 22.748 19.2495 22.9621V22.641H18.6768V25.2104H19.2495V23.7651C19.2495 23.3368 19.4404 23.096 19.795 23.096C19.904 23.096 20.0404 23.1227 20.1495 23.1495L20.3132 22.6142C20.2041 22.5874 20.0404 22.5874 19.9313 22.5874ZM12.5948 22.8551C12.3221 22.6677 11.9402 22.5874 11.5311 22.5874C10.8766 22.5874 10.4402 22.9086 10.4402 23.4171C10.4402 23.8454 10.7675 24.0863 11.3402 24.1665L11.613 24.1933C11.913 24.2468 12.0766 24.3271 12.0766 24.461C12.0766 24.6483 11.8584 24.7821 11.4766 24.7821C11.0948 24.7821 10.7948 24.6483 10.6039 24.5145L10.3311 24.9427C10.6311 25.1568 11.0402 25.2639 11.4493 25.2639C12.213 25.2639 12.6494 24.916 12.6494 24.4342C12.6494 23.9792 12.2948 23.7383 11.7493 23.658L11.4766 23.6313C11.2311 23.6045 11.0402 23.551 11.0402 23.3904C11.0402 23.203 11.2311 23.096 11.5311 23.096C11.8584 23.096 12.1857 23.2298 12.3493 23.3101L12.5948 22.8551ZM27.8133 22.5874C27.486 22.5874 27.2678 22.748 27.1315 22.9621V22.641H26.5587V25.2104H27.1315V23.7651C27.1315 23.3368 27.3224 23.096 27.6769 23.096C27.786 23.096 27.9224 23.1227 28.0315 23.1495L28.1951 22.6142C28.086 22.5874 27.9224 22.5874 27.8133 22.5874ZM20.5041 23.9257C20.5041 24.7018 21.0495 25.2639 21.895 25.2639C22.2768 25.2639 22.5496 25.1836 22.8223 24.9695L22.5496 24.5145C22.3314 24.6751 22.1132 24.7554 21.8677 24.7554C21.4041 24.7554 21.0768 24.4342 21.0768 23.9257C21.0768 23.4439 21.4041 23.1227 21.8677 23.096C22.1132 23.096 22.3314 23.1763 22.5496 23.3368L22.8223 22.8818C22.5496 22.6677 22.2768 22.5874 21.895 22.5874C21.0495 22.5874 20.5041 23.1495 20.5041 23.9257ZM25.7951 23.9257V22.641H25.2223V22.9621C25.0314 22.7213 24.7587 22.5874 24.4041 22.5874C23.6678 22.5874 23.095 23.1495 23.095 23.9257C23.095 24.7018 23.6678 25.2639 24.4041 25.2639C24.786 25.2639 25.0587 25.1301 25.2223 24.8892V25.2104H25.7951V23.9257ZM23.695 23.9257C23.695 23.4707 23.995 23.096 24.486 23.096C24.9496 23.096 25.2769 23.4439 25.2769 23.9257C25.2769 24.3807 24.9496 24.7554 24.486 24.7554C23.995 24.7286 23.695 24.3807 23.695 23.9257ZM16.8494 22.5874C16.0858 22.5874 15.5403 23.1227 15.5403 23.9257C15.5403 24.7286 16.0858 25.2639 16.8767 25.2639C17.2585 25.2639 17.6404 25.1568 17.9404 24.916L17.6676 24.5145C17.4495 24.6751 17.1767 24.7821 16.904 24.7821C16.5494 24.7821 16.1949 24.6215 16.1131 24.1665H18.0495V23.9524C18.0767 23.1227 17.5858 22.5874 16.8494 22.5874ZM16.8494 23.0692C17.204 23.0692 17.4495 23.2833 17.504 23.6848H16.1403C16.1949 23.3368 16.4403 23.0692 16.8494 23.0692ZM31.0588 23.9257V21.6239H30.4861V22.9621C30.2952 22.7213 30.0224 22.5874 29.6679 22.5874C28.9315 22.5874 28.3588 23.1495 28.3588 23.9257C28.3588 24.7018 28.9315 25.2639 29.6679 25.2639C30.0497 25.2639 30.3224 25.1301 30.4861 24.8892V25.2104H31.0588V23.9257ZM28.9588 23.9257C28.9588 23.4707 29.2588 23.096 29.7497 23.096C30.2133 23.096 30.5406 23.4439 30.5406 23.9257C30.5406 24.3807 30.2133 24.7554 29.7497 24.7554C29.2588 24.7286 28.9588 24.3807 28.9588 23.9257ZM9.81294 23.9257V22.641H9.2402V22.9621C9.04928 22.7213 8.77655 22.5874 8.422 22.5874C7.68562 22.5874 7.11287 23.1495 7.11287 23.9257C7.11287 24.7018 7.68562 25.2639 8.422 25.2639C8.80382 25.2639 9.07656 25.1301 9.2402 24.8892V25.2104H9.81294V23.9257ZM7.68562 23.9257C7.68562 23.4707 7.98562 23.096 8.47654 23.096C8.94018 23.096 9.26747 23.4439 9.26747 23.9257C9.26747 24.3807 8.94018 24.7554 8.47654 24.7554C7.98562 24.7286 7.68562 24.3807 7.68562 23.9257Z" fill="#101112"/>
<path d="M20.9954 3.12994H12.4043V18.2788H20.9954V3.12994Z" fill="#777777"/>
<path d="M12.9511 10.7044C12.9511 7.6265 14.4238 4.89651 16.6875 3.13004C15.0238 1.84533 12.9238 1.06915 10.6328 1.06915C5.20545 1.06915 0.814453 5.37827 0.814453 10.7044C0.814453 16.0306 5.20545 20.3397 10.6328 20.3397C12.9238 20.3397 15.0238 19.5636 16.6875 18.2789C14.4238 16.5392 12.9511 13.7824 12.9511 10.7044Z" fill="#777777"/>
<path d="M32.5879 10.7044C32.5879 16.0306 28.1969 20.3397 22.7695 20.3397C20.4786 20.3397 18.3785 19.5636 16.7148 18.2789C19.0058 16.5124 20.4513 13.7824 20.4513 10.7044C20.4513 7.6265 18.9785 4.89651 16.7148 3.13004C18.3785 1.84533 20.4786 1.06915 22.7695 1.06915C28.1969 1.06915 32.5879 5.40503 32.5879 10.7044Z" fill="#777777"/>
</g>
<defs>
<clipPath id="clip0_611_26596">
<rect width="33.4006" height="27" fill="white"/>
</clipPath>
</defs>
</svg>

<svg width="34" height="27" fill="none" xmlns="http://www.w3.org/2000/svg"><g clip-path="url(#clip0_611_26596)"><path d="M6.595 25.21v-1.605c0-.616-.382-1.018-1.037-1.018-.327 0-.682.108-.927.455-.19-.294-.464-.455-.873-.455-.272 0-.545.08-.763.375v-.321h-.573v2.57h.573v-1.42c0-.454.245-.668.627-.668s.573.24.573.669v1.418h.572v-1.418c0-.455.273-.67.628-.67.381 0 .572.242.572.67v1.418h.628zm8.482-2.569h-.928v-.776h-.572v.776h-.518v.509h.518v1.177c0 .589.245.937.9.937.245 0 .518-.08.709-.188l-.164-.481a.91.91 0 01-.49.134c-.274 0-.383-.161-.383-.429v-1.15h.928v-.509zm4.854-.054a.772.772 0 00-.681.375v-.321h-.573v2.57h.573v-1.446c0-.428.19-.669.545-.669.109 0 .245.027.354.053l.164-.535c-.109-.027-.273-.027-.382-.027zm-7.336.268c-.273-.187-.655-.268-1.064-.268-.654 0-1.09.322-1.09.83 0 .428.326.67.9.75l.272.026c.3.054.464.134.464.268 0 .187-.219.321-.6.321-.382 0-.682-.134-.873-.267l-.273.428c.3.214.71.32 1.118.32.764 0 1.2-.347 1.2-.829 0-.455-.354-.696-.9-.776l-.272-.027c-.246-.026-.437-.08-.437-.24 0-.188.191-.295.491-.295.327 0 .655.134.818.214l.246-.455zm15.218-.268a.772.772 0 00-.681.375v-.321h-.573v2.57h.572v-1.446c0-.428.191-.669.546-.669.109 0 .245.027.355.053l.163-.535c-.109-.027-.273-.027-.382-.027zm-7.309 1.339c0 .776.545 1.338 1.391 1.338.382 0 .655-.08.927-.294l-.272-.455c-.219.16-.437.24-.682.24-.464 0-.791-.32-.791-.83 0-.481.327-.802.79-.829.246 0 .464.08.683.24l.272-.454c-.272-.214-.545-.295-.927-.295-.846 0-1.39.563-1.39 1.339zm5.291 0V22.64h-.573v.321c-.19-.24-.463-.375-.818-.375-.736 0-1.309.563-1.309 1.339s.573 1.338 1.31 1.338c.381 0 .654-.134.817-.375v.321h.573v-1.284zm-2.1 0c0-.455.3-.83.791-.83.464 0 .79.348.79.83 0 .455-.326.83-.79.83-.491-.027-.791-.375-.791-.83zm-6.846-1.339c-.763 0-1.309.536-1.309 1.339 0 .803.546 1.338 1.337 1.338.382 0 .763-.107 1.063-.348l-.272-.401c-.218.16-.491.267-.764.267-.355 0-.71-.16-.79-.616h1.935v-.214c.028-.83-.463-1.365-1.2-1.365zm0 .482c.355 0 .6.214.655.616H16.14c.055-.348.3-.616.71-.616zm14.21.857v-2.302h-.573v1.338c-.19-.24-.464-.375-.818-.375-.736 0-1.31.563-1.31 1.339s.573 1.338 1.31 1.338c.382 0 .654-.134.818-.375v.321h.573v-1.284zm-2.1 0c0-.455.3-.83.79-.83.464 0 .792.348.792.83 0 .455-.328.83-.791.83-.491-.027-.791-.375-.791-.83zm-19.146 0V22.64H9.24v.321c-.19-.24-.463-.375-.818-.375-.736 0-1.31.563-1.31 1.339s.574 1.338 1.31 1.338c.382 0 .655-.134.818-.375v.321h.573v-1.284zm-2.127 0c0-.455.3-.83.79-.83.464 0 .791.348.791.83 0 .455-.327.83-.79.83-.491-.027-.791-.375-.791-.83z" fill="#101112"/><path d="M20.995 3.13h-8.59v15.149h8.59V3.129z" fill="#777"/><path d="M12.951 10.704c0-3.078 1.473-5.807 3.736-7.574a9.876 9.876 0 00-6.054-2.06C5.205 1.07.814 5.377.814 10.703c0 5.327 4.391 9.636 9.819 9.636a9.876 9.876 0 006.055-2.061 9.557 9.557 0 01-3.737-7.575zm19.637 0c0 5.327-4.391 9.636-9.819 9.636a9.876 9.876 0 01-6.054-2.061c2.29-1.767 3.736-4.497 3.736-7.575 0-3.078-1.473-5.807-3.736-7.574a9.876 9.876 0 016.055-2.06c5.427 0 9.818 4.335 9.818 9.634z" fill="#777"/></g><defs><clipPath id="clip0_611_26596"><path fill="#fff" d="M0 0h33.401v27H0z"/></clipPath></defs></svg>
